icons/mission-server-16.svg

<?xml version="1.0" encoding="UTF-8"?><svg id="icons" xmlns="http://www.w3.org/2000/svg" viewBox="0 0 16 16"><path d="m4,4h-1v-1h1v1Zm2-1h-1v1h1v-1Zm2,0h-1v1h1v-1Zm-4,4h-1v1h1v-1Zm2,0h-1v1h1v-1Zm-1.5806,2h-2.4194v-3h5.9498c.07574-.37177.24091-.70795.46198-1H2v-3h12v3h-1.41177c.22107.29205.38623.62823.46198,1h.9498v1.78571l.23096.2309c.08984-.01074.1792-.0166.26904-.0166.1712,0,.33838.01758.5.05054V1H1v9h2.95767c.07727-.36627.23566-.70667.46173-1Zm7.2806,1.5l-1.2-1.2-1.2,1.2,1.2,1.2,1.2-1.2Zm2.12963,1.68752l-.70697-.70697-2.53477,2.51945h-.17383l-3.41406-3.41406h0l-1.17188-1.17194c-.36896.22937-.62811.61957-.62811,1.086,0,.71796.58203,1.29999,1.29999,1.29999.09302,0,.18274-.01141.26929-.0307l2.46143,2.46143c-.01929.08655-.0307.17627-.0307.26929,0,.71796.58203,1.29999,1.29999,1.29999s1.29999-.58203,1.29999-1.29999c0-.09137-.01141-.1795-.03003-.26471l2.05967-2.04777Zm.67037-2.98751c-.09302,0-.18274.01141-.26929.0307l-2.46143-2.46143c.01929-.08655.0307-.17627.0307-.26929,0-.71796-.58203-1.29999-1.29999-1.29999s-1.29999.58203-1.29999,1.29999c0,.09302.01141.18274.0307.26929l-2.05173,2.05173.70703.70703,2.52805-2.52805h.17188l3.06384,3.06378h0l1.52216,1.52222c.36896-.22931.62805-.61957.62805-1.086,0-.71796-.58203-1.29999-1.29999-1.29999Z"/><path fill="none" d="M0 0h16v16H0z"/></svg>

<svg xmlns="http://www.w3.org/2000/svg" viewBox="0 0 16 16"><path d="M4 4H3V3h1v1zm2-1H5v1h1V3zm2 0H7v1h1V3zM4 7H3v1h1V7zm2 0H5v1h1V7zM4.42 9H2V6h5.95c.076-.372.24-.708.462-1H2V2h12v3h-1.412c.221.292.386.628.462 1H14v1.786l.231.23A2.5 2.5 0 0 1 15 8.05V1H1v9h2.958c.077-.366.235-.707.461-1zm7.28 1.5l-1.2-1.2-1.2 1.2 1.2 1.2 1.2-1.2zm2.13 1.688l-.707-.707L10.588 14h-.174L7 10.586 5.828 9.414c-.369.23-.628.62-.628 1.086a1.3 1.3 0 0 0 1.57 1.27l2.46 2.46a1.3 1.3 0 1 0 2.57.27c0-.091-.011-.18-.03-.265l2.06-2.047zM14.5 9.2c-.093 0-.183.011-.27.03l-2.46-2.46a1.3 1.3 0 1 0-2.539 0L7.179 8.82l.707.707L10.414 7h.172l3.064 3.064 1.522 1.522c.369-.23.628-.62.628-1.086a1.3 1.3 0 0 0-1.3-1.3z"/><path fill="none" d="M0 0h16v16H0z"/></svg>
